X: 36898
T: Shoemaker's Fancy, The
R: jig
M: 6/8
K: Dmixolydian
|:AG|FDD DFA|dcA A2G|fdd cAA|dcA Gag|
fdd edc|dcA d2e|f2f ded|cAF G:|
FG|cAA efd|cAB c2d|cAA efd|cAF G2B|
cAA f2d|cAB cde|fff ded|cAF G2B||
cAA efd|cAB c2d|eAA efd|cAF G2A|
cAA fed|cAB cde|fff ded|cAF G3||

